!!!OTL: IK HEV SE NICH UP DE SCHOLEN GEBRACHT
!!!ARE: Europa, Mitteleuropa, Deutschland, Ost - Friesland
!!!SCT: E0188
!!!YEM: Copyright 1995, estate of Helmut Schaffrath.
**kern
*ICvox
*Ivox
*M3/4
*k[b-]
*d:
{4A
=1
4d
4d
4d
=2
4d
4e
4fn
=3
4g
4e
4e
=4
2e}
{4A
=5
2d
4d
=6
4fn
4e
8d
8d
=7
2a
4a
=8
2a}
{4a
=9
2g
4g
=10
4fn
4fn
8e
8d
=11
2.a
=12
2A}
{4a
=13
4a
4g
4a
=14
4a
4g
4a
=15
4ccn
4b-
4a
=16
4g
4a
4g
=17
2fn}
{8fn
8fn
=18
4fn
4fn
4fn
=19
4fn
4e
4d
=20
2.a
=21
2d}
==
!!!AGN: erzaehlendes Volks - Lied, Sage, Familien - Geschichte
!!!ONB: ESAC (Essen Associative Code) Database: ERK1
!!!AMT: simple triple
!!!AIN: vox
!!!EED: Helmut Schaffrath
!!!EEV: 1.0
*-
